src/assets/background/wave_line/wave_line_call.svg

<svg width="317" height="363" viewBox="0 0 317 363" fill="none" xmlns="http://www.w3.org/2000/svg">
<path d="M97.5 87.5C58.3 76.7 15.8333 49.6667 -0.5 37.5V293.5C1.5 292.667 9.7 293.1 26.5 301.5C47.5 312 67.5 378 108 358.5C148.5 339 128.5 307.5 216.5 301.5C304.5 295.5 332.5 283 308 259C283.5 235 212.5 195 206.5 156.5C200.5 118 146.5 101 97.5 87.5Z" stroke="#E3E6FF"/>
<path d="M94.9139 71.37C56.9483 60.9221 15.819 34.77 0 23V270.654C1.93702 269.848 9.87879 270.268 26.1497 278.394C46.4884 288.551 65.8586 352.4 105.083 333.535C144.308 314.671 124.938 284.198 210.166 278.394C295.395 272.589 322.514 260.497 298.785 237.279C275.057 214.062 206.292 175.366 200.481 138.121C194.67 100.876 142.371 84.4299 94.9139 71.37Z" stroke="#E3E6FF"/>
<path d="M93.0589 48.2917C55.8353 38.0767 15.5098 12.5076 0 1V243.133C1.89916 242.345 9.68572 242.755 25.6387 250.7C45.5799 260.631 64.5715 323.056 103.03 304.613C141.488 286.169 122.496 256.375 206.059 250.7C289.622 245.025 316.21 233.202 292.946 210.502C269.681 187.802 202.261 149.969 196.563 113.554C190.866 77.1396 139.588 61.0605 93.0589 48.2917Z" stroke="#E3E6FF"/>
</svg>

<svg width="317" height="363" fill="none" xmlns="http://www.w3.org/2000/svg">
	<path d="M97.5 87.5c-39.2-10.8-81.667-37.833-98-50v256c2-.833 10.2-.4 27 8 21 10.5 41 76.5 81.5 57s20.5-51 108.5-57S332.5 283 308 259s-95.5-64-101.5-102.5-60-55.5-109-69Z" stroke="#E3E6FF"/>
	<path d="M94.914 71.37C56.948 60.922 15.819 34.77 0 23v247.654c1.937-.806 9.879-.386 26.15 7.74 20.338 10.157 39.709 74.006 78.933 55.141 39.225-18.864 19.855-49.337 105.083-55.141 85.229-5.805 112.348-17.897 88.619-41.115-23.728-23.217-92.493-61.913-98.304-99.158-5.811-37.245-58.11-53.691-105.567-66.751Z" stroke="#E3E6FF"/>
	<path d="M93.059 48.292C55.835 38.077 15.509 12.508 0 1v242.133c1.9-.788 9.686-.378 25.639 7.567 19.94 9.931 38.933 72.356 77.391 53.913 38.458-18.444 19.466-48.238 103.029-53.913 83.563-5.675 110.151-17.498 86.887-40.198-23.265-22.7-90.685-60.533-96.383-96.948-5.697-36.414-56.975-52.494-103.504-65.262Z" stroke="#E3E6FF"/>
</svg>
